X:10003
T:Joy to the World
M:2/2
L:1/8
K:D
"D"d2 "G"c>B|"D"A3 "Em"G|"D"F2 "A7"E2|"D"D3 A|
"G"B3 B|"A7"c3 c|"D"d3 d|
"D"d-c B-A|A>-G- Fd|d-c B-A|A>-G- FF|
FF FF/-G/|A3 G/-F/|"A7"EE EE/-F/|G3 F/-E/|
"D"Dd- "G"dB|"D"A>G F"Em"G|"D"F2 "A7"E2|"D"D4|]
